X:1
T: Ashokan Farewell
C: Jay Ungar
M: 3/4
L: 1/8
R: slow air
K: Dmaj
Ac|"D"d3c BA|"D/F#"F4 EF|"G"G3F ED|"Em"B,2D3B,|  \
"D"A,2D2F2|"Bm"A2d2f2|"C"f3gf2|"A7"e4Ac|
"D"d3c BA|"D/F#"F4 EF|"G"G3F ED|"Em"B,2D3B,|  \
"D"A,2D2F2|"Bm"A2d2f2|"A7"A2c2e2|"D"d4FG||
A3 FD2|"D7"d4A2|"G"B3cd2|"D"AF3E2| \
F3ED2|"Bm"B,4G,2|"A"A,6|"A/G"A4 FE|
"D"D2F2A2|"C"=c6|"G"B3cd2|"D"A2F3D \
|1A,2D2F2|"Bm"Ad3F2|"A7"E3DC2|"D"D4 Ac 
|2A,D FA df|"Bm"ad'3f2|"Em"e3A"A7"c2|"D"d6||
